Other/football.svg

<svg xmlns="http://www.w3.org/2000/svg" viewBox="0 0 24 24" style="enable-background:new 0 0 24 24" xml:space="preserve"><path d="M15.9.7C14.7.2 13.4 0 12 0S9.3.2 8.1.7C3.4 2.3 0 6.8 0 12c0 6.6 5.4 12 12 12s12-5.4 12-12c0-5.2-3.4-9.7-8.1-11.3zm5.2 17.5h-3.8l-1.4-2.5 1.1-4.4 2.7-1.2 3.4 2.9c-.3 2-1 3.8-2 5.2zm-14.4 0H2.9c-1-1.5-1.7-3.3-1.9-5.2l3.4-2.9 2.7 1.2 1.1 4.4-1.5 2.5zM2.6 6.3l1.2 3.2L1 11.9c0-2.1.6-4 1.6-5.6zM9 15.4l-1-4.3 4-3.4 4 3.4-1 4.3H9zm11.3-5.9 1.2-3.2c1 1.6 1.6 3.6 1.6 5.6l-2.8-2.4zm.4-4.2-1.4 4-2.7 1.2L12.4 7V4l3.4-2.3c2.1.7 3.7 2 4.9 3.6zm-6-4L12 3.1 9.3 1.3C10.1 1.1 11 1 12 1s1.9.1 2.7.3zm-6.6.4L11.5 4v3l-4.2 3.5-2.6-1.2-1.4-4c1.2-1.7 2.8-2.9 4.8-3.6zM3.6 19.2h3l1.2 3c-1.6-.6-3-1.7-4.2-3zM9 22.6l-1.5-3.9 1.4-2.4h6.2l1.4 2.4-1.5 3.9c-1 .3-2 .4-3 .4s-2-.1-3-.4zm7.2-.4 1.2-3h3c-1.2 1.3-2.6 2.4-4.2 3z" style="fill:#263238"/></svg>

<?xml version="1.0" encoding="utf-8"?>
<!-- Generator: Adobe Illustrator 25.4.1, SVG Export Plug-In . SVG Version: 6.00 Build 0)  -->
<svg version="1.1" id="Capa_1" xmlns="http://www.w3.org/2000/svg" xmlns:xlink="http://www.w3.org/1999/xlink" x="0px" y="0px"
	 viewBox="0 0 24 24" style="enable-background:new 0 0 24 24;" xml:space="preserve">
<style type="text/css">
	.st0{fill:#263238;}
</style>
<g>
	<path class="st0" d="M15.9,0.7L15.9,0.7C14.7,0.2,13.4,0,12,0S9.3,0.2,8.1,0.7l0,0C3.4,2.3,0,6.8,0,12c0,6.6,5.4,12,12,12
		s12-5.4,12-12C24,6.8,20.6,2.3,15.9,0.7z M21.1,18.2h-3.8l-1.4-2.5l1.1-4.4l2.7-1.2l3.4,2.9C22.8,15,22.1,16.8,21.1,18.2z
		 M6.7,18.2H2.9c-1-1.5-1.7-3.3-1.9-5.2l3.4-2.9l2.7,1.2l1.1,4.4L6.7,18.2z M2.6,6.3l1.2,3.2L1,11.9C1,9.8,1.6,7.9,2.6,6.3z M9,15.4
		L8,11.1l4-3.4l4,3.4L15,15.4H9z M20.3,9.5l1.2-3.2c1,1.6,1.6,3.6,1.6,5.6L20.3,9.5z M20.7,5.3l-1.4,4l-2.7,1.2l-4.2-3.5v-3l3.4-2.3
		C17.9,2.4,19.5,3.7,20.7,5.3z M14.7,1.3L12,3.1L9.3,1.3C10.1,1.1,11,1,12,1S13.9,1.1,14.7,1.3z M8.1,1.7l3.4,2.3v3l-4.2,3.5
		L4.7,9.3l-1.4-4C4.5,3.6,6.1,2.4,8.1,1.7z M3.6,19.2h3l1.2,3C6.2,21.6,4.8,20.5,3.6,19.2z M9,22.6l-1.5-3.9l1.4-2.4h6.2l1.4,2.4
		L15,22.6c-1,0.3-2,0.4-3,0.4C11,23,10,22.9,9,22.6z M16.2,22.2l1.2-3h3C19.2,20.5,17.8,21.6,16.2,22.2z"/>
</g>
</svg>
